exported-svg/facebook.svg

<svg height="24" viewBox="0 0 24 24" width="24" xmlns="http://www.w3.org/2000/svg"><path d="m9 10h-2.5c-.27614237 0-.5.2238576-.5.5v4c0 .2761424.22385763.5.5.5h2.5v7.5c0 .2761424.22385763.5.5.5h4c.2761424 0 .5-.2238576.5-.5v-7.5h2.5c.2294338 0 .4294254-.1561487.4850713-.3787322l1-4c.0788933-.3155734-.1597857-.6212678-.4850713-.6212678h-3.5v-2.5c0-.27614237.2238576-.5.5-.5h3c.2761424 0 .5-.22385763.5-.5v-4c0-.27614237-.2238576-.5-.5-.5h-3c-3.0375661 0-5.5 2.46243388-5.5 5.5zm8-7v3h-2.5c-.8284271 0-1.5.67157288-1.5 1.5v3c0 .2761424.2238576.5.5.5h3.3596118l-.75 3h-2.6096118c-.2761424 0-.5.2238576-.5.5v7.5h-3v-7.5c0-.2761424-.22385763-.5-.5-.5h-2.5v-3h2.5c.27614237 0 .5-.2238576.5-.5v-3c0-2.48528137 2.0147186-4.5 4.5-4.5z"/></svg>

<?xml version="1.0" encoding="UTF-8"?>
<svg width="24px" height="24px" viewBox="0 0 24 24" version="1.1" xmlns="http://www.w3.org/2000/svg" xmlns:xlink="http://www.w3.org/1999/xlink">
    <!-- Generator: Sketch 55.2 (78181) - https://sketchapp.com -->
    <title>facebook</title>
    <desc>Created with Sketch.</desc>
    <g id="facebook" stroke="none" stroke-width="1" fill="none" fill-rule="evenodd">
        <path d="M9,10 L6.5,10 C6.22385763,10 6,10.2238576 6,10.5 L6,14.5 C6,14.7761424 6.22385763,15 6.5,15 L9,15 L9,22.5 C9,22.7761424 9.22385763,23 9.5,23 L13.5,23 C13.7761424,23 14,22.7761424 14,22.5 L14,15 L16.5,15 C16.7294338,15 16.9294254,14.8438513 16.9850713,14.6212678 L17.9850713,10.6212678 C18.0639646,10.3056944 17.8252856,10 17.5,10 L14,10 L14,7.5 C14,7.22385763 14.2238576,7 14.5,7 L17.5,7 C17.7761424,7 18,6.77614237 18,6.5 L18,2.5 C18,2.22385763 17.7761424,2 17.5,2 L14.5,2 C11.4624339,2 9,4.46243388 9,7.5 L9,10 Z M17,3 L17,6 L14.5,6 C13.6715729,6 13,6.67157288 13,7.5 L13,10.5 C13,10.7761424 13.2238576,11 13.5,11 L16.8596118,11 L16.1096118,14 L13.5,14 C13.2238576,14 13,14.2238576 13,14.5 L13,22 L10,22 L10,14.5 C10,14.2238576 9.77614237,14 9.5,14 L7,14 L7,11 L9.5,11 C9.77614237,11 10,10.7761424 10,10.5 L10,7.5 C10,5.01471863 12.0147186,3 14.5,3 L17,3 Z" id="Shape" fill="#000000" fill-rule="nonzero"></path>
    </g>
</svg>
